frontend/src/assets/doc/verified_icon.svg

<svg width="25" height="25" viewBox="0 0 25 25" fill="none" xmlns="http://www.w3.org/2000/svg">
<path fill-rule="evenodd" clip-rule="evenodd" d="M9.4905 1.50034C9.1861 1.75975 9.03389 1.88948 8.87133 1.99843C8.4987 2.24818 8.08021 2.42152 7.64013 2.5084C7.44814 2.54632 7.24879 2.56222 6.8501 2.59403C5.84838 2.67398 5.3475 2.71394 4.92964 2.86154C3.96314 3.20292 3.20292 3.96314 2.86154 4.92964C2.71394 5.3475 2.67398 5.84838 2.59403 6.8501C2.56222 7.24879 2.54632 7.44814 2.5084 7.64013C2.42152 8.08021 2.24818 8.4987 1.99843 8.87133C1.88948 9.03389 1.75977 9.18609 1.50034 9.4905C0.848541 10.2554 0.522628 10.6378 0.331528 11.0376C-0.110509 11.9625 -0.110509 13.0375 0.331528 13.9624C0.522641 14.3623 0.848541 14.7446 1.50034 15.5095C1.75973 15.8139 1.88948 15.9661 1.99843 16.1286C2.24818 16.5013 2.42152 16.9198 2.5084 17.3599C2.54632 17.5519 2.56222 17.7513 2.59403 18.1499C2.67398 19.1516 2.71394 19.6525 2.86154 20.0704C3.20292 21.0369 3.96314 21.7971 4.92964 22.1385C5.3475 22.286 5.84838 22.326 6.8501 22.406C7.24879 22.4378 7.44814 22.4538 7.64013 22.4916C8.08021 22.5785 8.4987 22.7519 8.87133 23.0016C9.03389 23.1105 9.18609 23.2403 9.4905 23.4996C10.2554 24.1515 10.6378 24.4774 11.0376 24.6685C11.9625 25.1105 13.0375 25.1105 13.9624 24.6685C14.3623 24.4774 14.7446 24.1515 15.5095 23.4996C15.8139 23.2403 15.9661 23.1105 16.1286 23.0016C16.5013 22.7519 16.9198 22.5785 17.3599 22.4916C17.5519 22.4538 17.7513 22.4378 18.1499 22.406C19.1516 22.326 19.6525 22.286 20.0704 22.1385C21.0369 21.7971 21.7971 21.0369 22.1385 20.0704C22.286 19.6525 22.326 19.1516 22.406 18.1499C22.4378 17.7513 22.4538 17.5519 22.4916 17.3599C22.5785 16.9198 22.7519 16.5013 23.0016 16.1286C23.1105 15.9661 23.2403 15.8139 23.4996 15.5095C24.1515 14.7446 24.4774 14.3623 24.6685 13.9624C25.1105 13.0375 25.1105 11.9625 24.6685 11.0376C24.4774 10.6378 24.1515 10.2554 23.4996 9.4905C23.2403 9.18609 23.1105 9.03389 23.0016 8.87133C22.7519 8.4987 22.5785 8.08021 22.4916 7.64013C22.4538 7.44814 22.4378 7.24879 22.406 6.8501C22.326 5.84838 22.286 5.3475 22.1385 4.92964C21.7971 3.96314 21.0369 3.20292 20.0704 2.86154C19.6525 2.71394 19.1516 2.67398 18.1499 2.59403C17.7513 2.56222 17.5519 2.54632 17.3599 2.5084C16.9198 2.42152 16.5013 2.24818 16.1286 1.99843C15.9661 1.88948 15.8139 1.75977 15.5095 1.50034C14.7446 0.848541 14.3623 0.522641 13.9624 0.331528C13.0375 -0.110509 11.9625 -0.110509 11.0376 0.331528C10.6378 0.522628 10.2554 0.848541 9.4905 1.50034ZM17.9669 9.82893C18.3641 9.43163 18.3641 8.7875 17.9669 8.3902C17.5696 7.99292 16.9254 7.99292 16.5281 8.3902L10.4654 14.453L8.47183 12.4595C8.07454 12.0623 7.4304 12.0623 7.03312 12.4595C6.63583 12.8568 6.63583 13.5009 7.03312 13.8983L9.74598 16.6111C10.1433 17.0084 10.7874 17.0084 11.1848 16.6111L17.9669 9.82893Z" fill="#0016E1"/>
</svg>

<?xml version="1.0"?>
<svg width="25" height="25" xmlns="http://www.w3.org/2000/svg" xmlns:svg="http://www.w3.org/2000/svg">
 <g class="layer">
  <title>Layer 1</title>
  <path clip-rule="evenodd" d="m9.49,1.5c-0.3,0.26 -0.46,0.39 -0.62,0.5c-0.37,0.25 -0.79,0.42 -1.23,0.51c-0.19,0.04 -0.39,0.05 -0.79,0.08c-1,0.08 -1.5,0.12 -1.92,0.27c-0.97,0.34 -1.73,1.1 -2.07,2.07c-0.15,0.42 -0.19,0.92 -0.27,1.92c-0.03,0.4 -0.04,0.6 -0.08,0.79c-0.09,0.44 -0.26,0.86 -0.51,1.23c-0.11,0.16 -0.24,0.32 -0.5,0.62c-0.65,0.77 -0.98,1.15 -1.17,1.55c-0.44,0.92 -0.44,2 0,2.92c0.19,0.4 0.52,0.78 1.17,1.55c0.26,0.3 0.39,0.46 0.5,0.62c0.25,0.37 0.42,0.79 0.51,1.23c0.04,0.19 0.05,0.39 0.08,0.79c0.08,1 0.12,1.5 0.27,1.92c0.34,0.97 1.1,1.73 2.07,2.07c0.42,0.15 0.92,0.19 1.92,0.27c0.4,0.03 0.6,0.04 0.79,0.08c0.44,0.09 0.86,0.26 1.23,0.51c0.16,0.11 0.32,0.24 0.62,0.5c0.77,0.65 1.15,0.98 1.55,1.17c0.92,0.44 2,0.44 2.92,0c0.4,-0.19 0.78,-0.52 1.55,-1.17c0.3,-0.26 0.46,-0.39 0.62,-0.5c0.37,-0.25 0.79,-0.42 1.23,-0.51c0.19,-0.04 0.39,-0.05 0.79,-0.08c1,-0.08 1.5,-0.12 1.92,-0.27c0.97,-0.34 1.73,-1.1 2.07,-2.07c0.15,-0.42 0.19,-0.92 0.27,-1.92c0.03,-0.4 0.04,-0.6 0.08,-0.79c0.09,-0.44 0.26,-0.86 0.51,-1.23c0.11,-0.16 0.24,-0.32 0.5,-0.62c0.65,-0.77 0.98,-1.15 1.17,-1.55c0.44,-0.92 0.44,-2 0,-2.92c-0.19,-0.4 -0.52,-0.78 -1.17,-1.55c-0.26,-0.3 -0.39,-0.46 -0.5,-0.62c-0.25,-0.37 -0.42,-0.79 -0.51,-1.23c-0.04,-0.19 -0.05,-0.39 -0.08,-0.79c-0.08,-1 -0.12,-1.5 -0.27,-1.92c-0.34,-0.97 -1.1,-1.73 -2.07,-2.07c-0.42,-0.15 -0.92,-0.19 -1.92,-0.27c-0.4,-0.03 -0.6,-0.04 -0.79,-0.08c-0.44,-0.09 -0.86,-0.26 -1.23,-0.51c-0.16,-0.11 -0.32,-0.24 -0.62,-0.5c-0.77,-0.65 -1.15,-0.98 -1.55,-1.17c-0.92,-0.44 -2,-0.44 -2.92,0c-0.4,0.19 -0.78,0.52 -1.55,1.17zm8.48,8.33c0.39,-0.4 0.39,-1.04 0,-1.44c-0.4,-0.4 -1.04,-0.4 -1.44,0l-6.06,6.06l-2,-1.99c-0.4,-0.4 -1.04,-0.4 -1.44,0c-0.39,0.4 -0.39,1.04 0,1.44l2.72,2.71c0.39,0.4 1.04,0.4 1.43,0l6.79,-6.78z" fill="#126a9c" fill-rule="evenodd" id="svg_1"/>
 </g>
</svg>
